polaris-icons/icons/newicons/ContentMinor.svg

<svg width="20" height="20" viewBox="0 0 20 20" fill="none" xmlns="http://www.w3.org/2000/svg">
<path d="M12 7.5C12.5523 7.5 13 7.05229 13 6.5C13 5.94772 12.5523 5.5 12 5.5C11.4477 5.5 11 5.94772 11 6.5C11 7.05229 11.4477 7.5 12 7.5Z" fill="black"/>
<path fill-rule="evenodd" clip-rule="evenodd" d="M6.91957 3H13.0804C13.6146 2.99999 14.0604 2.99998 14.4247 3.02974C14.8046 3.06078 15.1612 3.12789 15.4985 3.29973C16.0159 3.56338 16.4366 3.98408 16.7003 4.50153C16.8721 4.83879 16.9392 5.19545 16.9703 5.57533C17 5.93955 17 6.38538 17 6.91951V10.5805C17 11.1146 17 11.5605 16.9703 11.9247C16.9392 12.3046 16.8721 12.6612 16.7003 12.9985C16.4366 13.5159 16.0159 13.9366 15.4985 14.2003C15.1612 14.3721 14.8046 14.4392 14.4247 14.4703C14.0605 14.5 13.6146 14.5 13.0805 14.5H6.91955C6.38542 14.5 5.93955 14.5 5.57533 14.4703C5.19545 14.4392 4.83879 14.3721 4.50153 14.2003C3.98408 13.9366 3.56338 13.5159 3.29973 12.9985C3.12789 12.6612 3.06078 12.3046 3.02974 11.9247C2.99998 11.5604 2.99999 11.1146 3 10.5804V6.91957C2.99999 6.38542 2.99998 5.93956 3.02974 5.57533C3.06078 5.19545 3.12789 4.83879 3.29973 4.50153C3.56338 3.98408 3.98408 3.56338 4.50153 3.29973C4.83879 3.12789 5.19545 3.06078 5.57533 3.02974C5.93956 2.99998 6.38542 2.99999 6.91957 3ZM5.69748 4.52476C5.41036 4.54822 5.27307 4.5901 5.18251 4.63624C4.94731 4.75608 4.75608 4.94731 4.63624 5.18251C4.5901 5.27307 4.54822 5.41036 4.52476 5.69748C4.50058 5.99336 4.5 6.37757 4.5 6.95V8.43919L5.76256 7.17663C6.44598 6.49321 7.55402 6.49321 8.23744 7.17663L11 9.93919L12.2626 8.67662C12.946 7.99321 14.054 7.99321 14.7374 8.67663L15.5 9.43919V6.95C15.5 6.37757 15.4994 5.99336 15.4752 5.69748C15.4518 5.41036 15.4099 5.27307 15.3638 5.18251C15.2439 4.94731 15.0527 4.75608 14.8175 4.63624C14.7269 4.5901 14.5896 4.54822 14.3025 4.52476C14.0066 4.50058 13.6224 4.5 13.05 4.5H6.95C6.37757 4.5 5.99336 4.50058 5.69748 4.52476ZM4.52476 11.8025C4.50071 11.5082 4.50001 11.1264 4.5 10.5589C4.51031 10.5497 4.52042 10.5401 4.53033 10.5302L6.82322 8.23729C6.92085 8.13966 7.07915 8.13966 7.17678 8.23729L10.4697 11.5302C10.7626 11.8231 11.2374 11.8231 11.5303 11.5302L13.3232 9.73729C13.4209 9.63965 13.5791 9.63965 13.6768 9.73729L15.4697 11.5302C15.4763 11.5368 15.483 11.5433 15.4898 11.5496C15.4863 11.6412 15.4816 11.7249 15.4752 11.8025C15.4518 12.0896 15.4099 12.2269 15.3638 12.3175C15.2439 12.5527 15.0527 12.7439 14.8175 12.8638C14.7269 12.9099 14.5896 12.9518 14.3025 12.9752C14.0066 12.9994 13.6224 13 13.05 13H6.95C6.37757 13 5.99336 12.9994 5.69748 12.9752C5.41036 12.9518 5.27307 12.9099 5.18251 12.8638C4.94731 12.7439 4.75608 12.5527 4.63624 12.3175C4.5901 12.2269 4.54822 12.0896 4.52476 11.8025Z" fill="black"/>
<path d="M3.5 16.25C3.5 15.8358 3.83579 15.5 4.25 15.5H10.25C10.6642 15.5 11 15.8358 11 16.25C11 16.6642 10.6642 17 10.25 17H4.25C3.83579 17 3.5 16.6642 3.5 16.25Z" fill="black"/>
<path d="M13.25 15.5C12.8358 15.5 12.5 15.8358 12.5 16.25C12.5 16.6642 12.8358 17 13.25 17H15.75C16.1642 17 16.5 16.6642 16.5 16.25C16.5 15.8358 16.1642 15.5 15.75 15.5H13.25Z" fill="black"/>
</svg>

<svg viewBox="0 0 20 20" fill="none" xmlns="http://www.w3.org/2000/svg"><path d="M12 7.5a1 1 0 1 0 0-2 1 1 0 0 0 0 2Z" fill="#5C5F62"/><path fill-rule="evenodd" clip-rule="evenodd" d="M6.92 3h6.16c.535 0 .98 0 1.345.03.38.03.736.098 1.073.27a2.75 2.75 0 0 1 1.202 1.202c.172.337.24.693.27 1.073.03.365.03.81.03 1.345v3.66c0 .535 0 .98-.03 1.345-.03.38-.098.736-.27 1.073a2.751 2.751 0 0 1-1.201 1.202c-.338.172-.694.24-1.074.27-.365.03-.81.03-1.345.03h-6.16c-.535 0-.98 0-1.345-.03-.38-.03-.736-.098-1.073-.27a2.75 2.75 0 0 1-1.202-1.201c-.172-.338-.24-.694-.27-1.074-.03-.365-.03-.81-.03-1.345v-3.66c0-.535 0-.98.03-1.345.03-.38.098-.736.27-1.073a2.75 2.75 0 0 1 1.202-1.202c.337-.172.693-.24 1.073-.27.365-.03.81-.03 1.345-.03Zm-1.223 1.525c-.287.023-.424.065-.514.111a1.25 1.25 0 0 0-.547.547c-.046.09-.088.227-.111.514-.024.296-.025.68-.025 1.253v1.49l1.263-1.263a1.75 1.75 0 0 1 2.474 0l2.763 2.762 1.263-1.262a1.75 1.75 0 0 1 2.474 0l.763.762v-2.489c0-.572 0-.957-.025-1.253-.023-.287-.065-.424-.111-.514a1.25 1.25 0 0 0-.546-.547c-.091-.046-.228-.088-.515-.111-.296-.024-.68-.025-1.253-.025h-6.1c-.572 0-.957 0-1.253.025Zm-1.172 7.277a17.03 17.03 0 0 1-.025-1.243l.03-.029 2.293-2.293a.25.25 0 0 1 .354 0l3.293 3.293a.75.75 0 0 0 1.06 0l1.793-1.793a.25.25 0 0 1 .354 0l1.793 1.793a.733.733 0 0 0 .02.02 5.769 5.769 0 0 1-.015.252c-.023.288-.065.425-.111.516a1.25 1.25 0 0 1-.546.546c-.091.046-.228.088-.515.111-.296.024-.68.025-1.253.025h-6.1c-.572 0-.957 0-1.253-.025-.287-.023-.424-.065-.514-.111a1.25 1.25 0 0 1-.547-.546c-.046-.091-.088-.228-.111-.515Z" fill="#5C5F62"/><path d="M3.5 16.25a.75.75 0 0 1 .75-.75h6a.75.75 0 0 1 0 1.5h-6a.75.75 0 0 1-.75-.75Z" fill="#5C5F62"/><path d="M13.25 15.5a.75.75 0 0 0 0 1.5h2.5a.75.75 0 0 0 0-1.5h-2.5Z" fill="#5C5F62"/></svg>
